X:1
T:Reel des Citrouilles
C:Gilles Vigneault
Z:robin.beech@mcgill.ca
R:reel
M:4/4
L:1/8
K:Gmin
D2 |: GFGA BABc | d^cd=e f2d2 | gfgb agfg | agf=e d4 | edce dcBd | 
cBAc B2cB |1 AG^FG D2ed | cBAB GD=E^F :|2 AG^FG DdcB | AG^FA  G2dc |: 
K:G
BdAd GdBG | cBAc BGBd | cBAc BdBG | AFGE D2 dc | 
BdAd GdBG | cBAc BGAB | cdef gedc | BGAF G2dc :|
